X: 24066
T: Long Acre, The
R: reel
M: 4/4
K: Dmajor
FE|:D2 dB AGFE|DFdF A2 FE|D2 dB AGFD|GABG E2 FE|
D2 dB AGFE|DF dFA2 Bc|dBcA BGAF|1 GABG E2 FE:|2 GABG E3e||
fgaf ~d3e|fgaf dcAe|fgaf dcdA|(3Bcd ef g2 ag|
fgaf ~d3e|fgaf g2 fg|1 {a}gf (3gfe fdAF|GABG E3 e:|2 {a}gf{a}fe faec|dBAF FGFE||

